quartz/static/markers/subway.svg

<?xml version="1.0" encoding="UTF-8" standalone="no"?>
<svg
   width="32"
   height="17"
   viewBox="0 0 16 8.5"
   fill="#000000"
   version="1.1"
   id="svg2"
   sodipodi:docname="subway.svg"
   inkscape:version="1.3.2 (091e20e, 2023-11-25, custom)"
   xmlns:inkscape="http://www.inkscape.org/namespaces/inkscape"
   xmlns:sodipodi="http://sodipodi.sourceforge.net/DTD/sodipodi-0.dtd"
   xmlns="http://www.w3.org/2000/svg"
   xmlns:svg="http://www.w3.org/2000/svg">
  <defs
     id="defs1" />
  <sodipodi:namedview
     id="namedview1"
     pagecolor="#505050"
     bordercolor="#ffffff"
     borderopacity="1"
     inkscape:showpageshadow="0"
     inkscape:pageopacity="0"
     inkscape:pagecheckerboard="1"
     inkscape:deskcolor="#d1d1d1"
     inkscape:zoom="12.125"
     inkscape:cx="16"
     inkscape:cy="10.020619"
     inkscape:window-width="2560"
     inkscape:window-height="1369"
     inkscape:window-x="-8"
     inkscape:window-y="73"
     inkscape:window-maximized="1"
     inkscape:current-layer="svg2" />
  <g
     id="SVGRepo_iconCarrier"
     transform="matrix(0.265625,0,0,0.265625,3.75,0)">
    <g
       fill="none"
       fill-rule="evenodd"
       id="g2">
      <path
         d="M 0,0 H 32 V 32 H 0 Z"
         id="path1" />
      <path
         d="m 21.468648,0 c 3.027605,0 5.580868,2.2556301 5.954208,5.260128 l 1.739645,14 c 0.401624,3.232114 -1.846778,6.182744 -5.046272,6.670826 l 2.385822,4.131224 c 0.276142,0.478292 0.112267,1.089883 -0.366026,1.366025 C 25.657733,31.704346 25.046142,31.54047 24.77,31.062178 L 23.578707,29 H 8.4227066 L 7.2320508,31.062178 C 6.9559084,31.54047 6.344318,31.704346 5.8660254,31.428203 5.3877328,31.152061 5.2238576,30.54047 5.5,30.062178 L 7.8849891,25.931935 C 5.001516,25.494849 2.7917066,23.005489 2.7917066,20 c 0,-0.247332 0.015293,-0.494427 0.045792,-0.739872 l 1.7396449,-14 C 4.9504838,2.2556301 7.5037468,0 10.531352,0 Z m 0.378059,26 h -11.692 L 9.5777066,27 H 22.424707 Z M 10.5,19 C 9.6715729,19 9,19.671573 9,20.5 9,21.328427 9.6715729,22 10.5,22 11.328427,22 12,21.328427 12,20.5 12,19.671573 11.328427,19 10.5,19 Z m 11,0 C 20.671573,19 20,19.671573 20,20.5 20,21.328427 20.671573,22 21.5,22 22.328427,22 23,21.328427 23,20.5 23,19.671573 22.328427,19 21.5,19 Z M 21.095051,8 H 10.904949 C 9.8977909,8 9.0477562,8.7489198 8.9208819,9.7480549 L 8.2859613,14.748055 C 8.2753502,14.831617 8.2700287,14.915767 8.2700287,15 c 0,1.104569 0.8954305,2 2.0000003,2 h 11.459942 c 0.08423,0 0.168383,-0.0053 0.251945,-0.01593 1.095771,-0.139145 1.871268,-1.140242 1.732123,-2.236012 L 23.079118,9.7480549 C 22.952244,8.7489198 22.102209,8 21.095051,8 Z M 19,4 h -6 c -0.552285,0 -1,0.4477152 -1,1 0,0.5522847 0.447715,1 1,1 h 6 C 19.552285,6 20,5.5522847 20,5 20,4.4477152 19.552285,4 19,4 Z"
         fill="#ebebec"
         id="path2" />
    </g>
  </g>
</svg>

<?xml version="1.0" encoding="UTF-8"?>
<svg width="32" height="17" fill="#000000" version="1.1" viewBox="0 0 16 8.5" xmlns="http://www.w3.org/2000/svg">
  <g transform="matrix(.26562 0 0 .26562 3.75 0)">
    <g fill="none" fill-rule="evenodd">
      <path d="m0 0h32v32h-32z"/>
      <path d="m21.469 0c3.0276 0 5.5809 2.2556 5.9542 5.2601l1.7396 14c0.40162 3.2321-1.8468 6.1827-5.0463 6.6708l2.3858 4.1312c0.27614 0.47829 0.11227 1.0899-0.36603 1.366-0.47829 0.27614-1.0899 0.11227-1.366-0.36602l-1.1913-2.0622h-15.156l-1.1907 2.0622c-0.27614 0.47829-0.88773 0.64217-1.366 0.36602-0.47829-0.27614-0.64217-0.88773-0.36603-1.366l2.385-4.1302c-2.8835-0.43709-5.0933-2.9264-5.0933-5.9319 0-0.24733 0.015293-0.49443 0.045792-0.73987l1.7396-14c0.37334-3.0045 2.9266-5.2601 5.9542-5.2601zm0.37806 26h-11.692l-0.577 1h12.847zm-11.347-7c-0.82843 0-1.5 0.67157-1.5 1.5s0.67157 1.5 1.5 1.5c0.82843 0 1.5-0.67157 1.5-1.5s-0.67157-1.5-1.5-1.5zm11 0c-0.82843 0-1.5 0.67157-1.5 1.5s0.67157 1.5 1.5 1.5 1.5-0.67157 1.5-1.5-0.67157-1.5-1.5-1.5zm-0.40495-11h-10.19c-1.0072 0-1.8572 0.74892-1.9841 1.7481l-0.63492 5c-0.010611 0.083562-0.015933 0.16771-0.015933 0.25194 0 1.1046 0.89543 2 2 2h11.46c0.08423 0 0.16838-0.0053 0.25194-0.01593 1.0958-0.13914 1.8713-1.1402 1.7321-2.236l-0.63492-5c-0.12687-0.99914-0.97691-1.7481-1.9841-1.7481zm-2.0951-4h-6c-0.55228 0-1 0.44772-1 1 0 0.55228 0.44772 1 1 1h6c0.55228 0 1-0.44772 1-1 0-0.55228-0.44772-1-1-1z" fill="#ebebec"/>
    </g>
  </g>
</svg>
